X:1
T:Title
%%score { 1 | 2 }
L:1/8
Q:1/4=160
M:7/8
K:C
V:1 treble nm="113"
V:2 bass 
V:1
"^Allegro assai, ͜  . = 45" FcG c F cG | FcG c F cG | FcG c F cG | FcG c F cG | FcG c F cG | %5
 FcG c F cG | FcG c F cG | FcG c F cG | FcG c F cG | FcG c F cG :| z F cG F cG | z2 z G F cG | %12
 z2 z2 [FAc]3 | .[FAc]2 .[FAc]2 .[FAc]2 z | z7 |] %15
V:2
 .[F,A,C]2 .[F,A,C]2 !>!.[F,A,C]2 z | .[F,A,C]2 .[F,A,C]2 !>!.[F,A,C]2 z | %2
 .[_E,A,C]2 .[E,A,C]2 !>!.[E,A,C]2 z | .[_E,_A,C]2 .[E,A,C]2 !>!.[E,A,C]2 z | %4
 .[D,_A,_B,]2 .[D,A,B,]2 !>!.[D,A,B,]2 z | .[_D,_E,_B,]2 .[D,E,B,]2 !>!.[D,E,B,]2 z | %6
 .[C,F,=A,]2 .[C,F,A,]2 .!^![C,F,=B,]2 z | .[C,F,G,]2 .[C,F,G,]2 .!^![C,E,_B,]2 z | %8
 .[A,,D,F,]2 .[A,,D,F,]2 .!^![=B,,D,F,]2 z | .[G,,C,F,]2 .[G,,C,F,]2 .!^![_B,,C,E,]2 z :| %10
 .[A,,C,F,]2 .[A,,C,F,]2 [=B,,D,G,]2 z | .[C,F,A,]2 .[C,F,A,]2 .[C,F,=B,]2 z | %12
 .[F,A,C]2 .[F,A,C]2 .[F,A,C]2 z | z2 z2 !tenuto![F,A,C]3 | .[F,A,C]2 [F,A,C]4"^[33 sec.]" z |] %15

